X:1
T:Title
%%score { 1 | 2 }
L:1/8
Q:1/4=100
M:4/4
K:Ab
V:1 treble nm="Grand Piano"
V:2 bass 
V:1
 c2 c2 c3 B | A2 F2 [DF]2 [CE]2 | G3 [CA] [EB]2 [EB]2 | [Ec]2 [EA]2 [EB]4 | [Ec]2 [Ec]2 c3 B | %5
w: H.~L.~Gilmour * * *|||||
 A2 F2 [DF]2 [CE]2 | [CEA]2 [Ec]2 [Ee]3 [Fd] | [Ec]2 [DB]2 [CA]4 | B3 A G2 E2 | F2 E2 [Ec]2 [CA]2 | %10
w: |||||
 [Ec]3 c e2 c2 | c2 [EA]2 [EB]4 | [Ec]3 [Ec] [Ec]2 [_Ge]2 | [Fe]3 [Fd] [Fd]2 [Af]2 | %14
w: ||||
 [Ae]3 [Ae] [Ae]2 c2 | d2 G2 [CEA]4 | B3 A G2 E2 | F2 E2 [Ec]2 [CA]2 | [Ec]3 c e2 c2 | %19
w: |||||
 c2 [EA]2 [EB]4 | [Ec]3 [Ec] [Ec]2 [_Ge]2 | [Fe]3 [Fd] [Fd]2 [Af]2 | [Ae]3 [Ae] [Ae]2 c2 | %23
w: ||||
 d2 G2 [CEA]4 |] %24
w: |
V:2
 [A,E]2 [A,E]2 [A,E]3 [G,B,E] | [A,CE]2 [D,A,D]2 [A,,A,]2 [A,,A,]2 | %2
 [E,D]3 [A,,E,] [E,G,]2 [E,G,]2 | [A,,A,]2 [C,A,]2 [E,G,]4 | [A,,A,]2 [A,,A,]2 [A,E]3 [G,B,E] | %5
 [A,CE]2 [D,A,D]2 [A,,A,]2 [A,,A,]2 | A,,2 [A,,A,]2 [C,A,]3 [D,A,] | [E,A,]2 [E,G,]2 [A,,A,]4 | %8
 [E,G,E]3 [E,CE] [E,B,E]2 [E,G,D]2 | [E,A,D]2 [E,G,D]2 [A,,A,]2 [A,,A,]2 | %10
 [A,,A,]3[K:treble] [A,E] [A,CE]2 [A,EA]2 | [A,EA]2[K:bass] [C,A,]2 [E,G,]4 | %12
 [A,,A,]3 [A,,A,] [A,,A,]2 [C,A,]2 | [D,A,]3 [D,A,] [D,A,]2 [D,D]2 | [E,C]3 [E,C] [E,C]2 [E,A,E]2 | %15
 [E,G,E]2 [E,DE]2 A,,4 | [E,G,E]3 [E,CE] [E,B,E]2 [E,G,D]2 | [E,A,D]2 [E,G,D]2 [A,,A,]2 [A,,A,]2 | %18
 [A,,A,]3[K:treble] [A,E] [A,CE]2 [A,EA]2 | [A,EA]2[K:bass] [C,A,]2 [E,G,]4 | %20
 [A,,A,]3 [A,,A,] [A,,A,]2 [C,A,]2 | [D,A,]3 [D,A,] [D,A,]2 [D,D]2 | [E,C]3 [E,C] [E,C]2 [E,A,E]2 | %23
 [E,G,E]2 [E,DE]2 A,,4 |] %24

